X: 17
T:Huntsman's Chorus,bass part. JNu.13
M:2/4
Q:40
S:James Nuttall MS,c1830,Rossendale,East Lancs.
R:Air
O:England
A:East Lancashire
Z:vmp.Chris Partington
K:G
"thirdo,read as bass clef"z2|E2E2|e2E2|B2BB|\
eB Ez|Ee EE|B2B2|f2F2|B3:|!
|:z|E2EE|A2AA|F2FF|B2BB|E2EE|A2AA|A2AA|B2z2|!
E2E2|A2E2|B2B2|e2E2|E2E2|E2E2|AA BB,|E2z2|!
.B,2.B,2|.B,2.B,2|.E2.E2|.E2.E2|BFBF|BFBF|.E2.E2|.E2.E2|!
.B2.B2|.B2.B2|e2B2|e2B2|BB/B/ BB|B4|\
.E2z2|.E2z2|!
.B2.B2|.B2.B2|.E2z2|.E2z2|.B2.B2|\
.B2.B2|e2dB|e2dB|egbg|e3"X"e/e/|!
ee/e/ ee/e/|ee/e/ ee/e/|e2BB|e3e/e/|eE/E/ EE/E/|ee/e/ ee/e/|!
e2BB|ee3/4e/4 dd3/4d/4|ee3/4e/4 BB3/4B/4|EE3/4E/4 EB,|B,3|]
